X:1
T:Abbey Craig, The
T:Abbey Craig, The
T:Alexander Walker
C:Alexander Walker
L:1/8
M:4/4
K:E
V:1 treble 
V:1
 c | B<EG>E C<E B,2 | G>EB>E C<FF>c | B<EG>E C>EB,>c | B>ef>a g<e e :| g | a/g/f/e/ b>e g>eb>g | %7
 a>fg>e f<FF>A | G>EB>E c>Ed>E | c>fB>d e<EE>g | a/g/f/e/ b>e g>eb>g | a>fg>e f<FF>d | %12
 (3efg (3fed (3cde (3BAG | (3ABc (3Bcd e<E E || %14

